X: 360
T: Honga "Hop-Lulia"
R: honga
O:
Q: 1/4=152
B: German Goldenshteyn "Shpilt klezmorimlach klingen zoln di gesalach" New York 2003 v.3 #60
Z: 2013 John Chambers <jc:trillian.mit.edu>
M: 2/4
L: 1/8
K: Em
eg Be GB Ez |:\
z(a^ga) | =g>f ef | g>f ef | (gf) a2 |\
z(def) | (gf) (af) | (ge) (=fd) | e4 :|
|:\
{b}e'2 (3(c'ba) | ({d'}gabc') | (ba) (^ga) | bz e2- |\
e(def) | (gf) (af) | (ge) (=fd) | e4 :|
|:
z(def) | (gf) a2 | (gfef) | (gf) a2 |\
z(def) | (gf) (af) | (ge =f)d | e4 :|
|:\
{^c'}d'4- | d'4 | {b}^c'4- | c'4 |\
(~^c'b) (~c'b) | (~^c'b) (~c'b) | b4- | b4 |
{b}e'z bb | {b}e'z bb | {b}e'z bb | (~ba) a2 |\
d'z aa | (~ag) (~gf) | f4- | f4 |
{^g}a4 | (a^g=f) (fed) | d4- | d4 |\
A4- | A4 | D4- | D4 |
e=f (~^gf) | (~^g=f) ed | e=f (~^gf) | (~^g=f) ed |\
e=f (~^gf) | (~^g=f) ed | {^a}b4 | (3(ba^g) (3(ag=f) |
e=f (~^gf) | (~^g=f) ed | e=f (~^gf) | (~^g=f) ed |\
dz (~ba) | (~^g=f) (~ed) | e4- | e4 :|
{b}az {a}^gz | {b}az {a}ff | {b}az {a}^gz | {b}az {a}ff |\
{b}az {a}bz | {b}c'z {c'}bz | {b}a>a {a}^g>g | {b}a>a {a}f>f |
a/a/a/d/ ^g/g/g/d/ | a/a/a/d/ f/f/f/d/ | a/a/a/d/ ^g/g/g/d/ | a/a/a/d f/f/f/d/ |\
a/a/a/d/ b/b/b/d/ | c'/c'/c'/d/ b/b/b/d/ | a/a/a/d/ ^g/g/g/d/ | a/a/a/d/ f/f/f/d/ |]
